X: 4645
T: Boxing Day
R: slip jig
M: 9/8
K: Adorian
|:G>AA A>Bd e3|A>AA g>fd e2 a|G>AA A>Be d>BG|G3-G2 A B>ee|
G>AA A>Bd e3|A>AA g>fd e2f|g2d d>eg e>dd|e<gG A3 A2e:|
|:a2A A>AA g>fg|d>eg e3 e2a|A>Bd e3 A2 e|d>Bd g>fe d3-|
-d2 a A>AA g>fg|d>eg e3 e2f|g2d d>eg e>dd|e<gG A3 A2e:|

